assets/src/images/icons/ic_automatisation.svg

<svg width="103" height="102" viewBox="0 0 103 102" fill="none" xmlns="http://www.w3.org/2000/svg">
<g filter="url(#filter0_d)">
<path fill-rule="evenodd" clip-rule="evenodd" d="M72.0044 33.8815V62.5178C72.1021 64.5536 70.5394 66.2871 68.5045 66.4H57.3045V67.8001H60.1045C61.6508 67.8001 62.9044 69.0537 62.9044 70.6001V71.3C62.9044 71.6866 62.5911 72 62.2045 72H39.8044C39.4178 72 39.1044 71.6866 39.1044 71.3V70.6001C39.1044 69.0537 40.358 67.8001 41.9044 67.8001H44.7044V66.4H33.5044C31.4693 66.287 29.9066 64.5536 30.0043 62.5178V33.8815C29.907 31.846 31.4697 30.113 33.5044 30H68.5044C70.5391 30.113 72.1018 31.846 72.0044 33.8815ZM61.5044 70.6001C61.5044 69.8269 60.8776 69.2001 60.1044 69.2001H41.9044C41.1312 69.2001 40.5044 69.8269 40.5044 70.6001H61.5044ZM46.1044 66.4V67.8001H55.9044V66.4H46.1044ZM33.5044 65.0001H68.5044C69.7646 64.8844 70.6991 63.7797 70.6045 62.5179V60.8001H31.4044V62.5179C31.3097 63.7797 32.2443 64.8844 33.5044 65.0001ZM70.6044 59.4001V33.8815C70.6991 32.6198 69.7644 31.5153 68.5045 31.3999H33.5044C32.2444 31.5153 31.3097 32.6198 31.4044 33.8815V59.4001H70.6044ZM67.8044 40.2039V42.6C68.191 42.6 68.5045 42.9135 68.5045 43.3001C68.5045 43.6867 68.1911 44.0001 67.8045 44.0001H51.7044C50.5446 44.0001 49.6044 43.0598 49.6044 41.9001V33.5C49.6044 33.1134 49.9179 32.8001 50.3044 32.8001C50.6909 32.8001 51.0044 33.1134 51.0044 33.5V41.9001C51.0044 42.2866 51.3177 42.6 51.7043 42.6H52.4043V34.9C52.4043 34.1268 53.0311 33.5 53.8044 33.5H55.2044C55.9776 33.5 56.6044 34.1268 56.6044 34.9V42.6H58.0044V38.211C58.0052 37.5425 58.5469 37.0008 59.2153 37H60.9933C61.6619 37.0008 62.2036 37.5425 62.2044 38.211V42.6H63.6044V40.2039C63.6048 39.5944 64.0988 39.1004 64.7083 39.1H66.7005C67.31 39.1004 67.804 39.5944 67.8044 40.2039ZM53.8044 42.6H55.2044V34.9H53.8044V42.6ZM59.4044 42.6H60.8044V38.4H59.4044V42.6ZM65.0044 42.6H66.4044H66.4045V40.5H65.0044V42.6ZM39.1219 33.059C39.5072 32.7194 40.0837 32.7149 40.4743 33.0485L45.8712 37.8785C46.0602 38.0447 46.1455 38.2994 46.0946 38.5459C46.0438 38.7924 45.8646 38.9925 45.6253 39.0702C45.386 39.1479 45.1233 39.0911 44.9374 38.9216L39.8043 34.3267L34.6712 38.9216C34.3827 39.1751 33.9438 39.1489 33.6876 38.8627C33.4315 38.5765 33.4537 38.1374 33.7374 37.8785L34.9044 36.8341V35.25C34.9044 34.8634 35.2178 34.55 35.6044 34.55C35.991 34.55 36.3044 34.8634 36.3044 35.25V35.5804L39.1219 33.059ZM43.3044 40.5C43.3044 40.1134 43.6178 39.8 44.0044 39.8C44.3909 39.8 44.7044 40.1134 44.7044 40.5V45.8424C44.6975 46.3772 44.2592 46.8054 43.7244 46.8H35.8844C35.35 46.8067 34.9113 46.379 34.9044 45.8445V40.5C34.9044 40.1134 35.2178 39.8 35.6044 39.8C35.991 39.8 36.3043 40.1134 36.3043 40.5V45.4H43.3044V40.5ZM39.8044 48.2001C37.0982 48.2001 34.9044 50.3939 34.9044 53.1C34.9044 55.8062 37.0982 58 39.8044 58C42.5105 58 44.7044 55.8062 44.7044 53.1C44.7012 50.3951 42.5093 48.2031 39.8044 48.2001ZM36.3043 53.1C36.3065 51.4374 37.4758 50.0049 39.1043 49.6701V52.7032L36.5143 54.2564C36.3788 53.8858 36.3077 53.4947 36.3043 53.1ZM37.2357 55.4567L39.6959 53.9807L41.7315 56.0163C40.3014 56.9703 38.3883 56.7322 37.2357 55.4567ZM42.7213 55.0265L40.5044 52.8102V49.6701C41.6439 49.901 42.594 50.6837 43.0387 51.7581C43.4833 52.8325 43.3644 54.0577 42.7213 55.0265ZM67.8044 56.6001H51.7043C51.3177 56.6001 51.0044 56.2867 51.0044 55.9001V54.7899L53.3095 52.4848C53.586 52.2194 54.0227 52.2194 54.2992 52.4848L55.1196 53.3052C55.9397 54.125 57.269 54.125 58.089 53.3052L61.0094 50.3848C61.2859 50.1194 61.7227 50.1194 61.9992 50.3848L62.8196 51.2059C63.6406 52.0235 64.968 52.0235 65.789 51.2059L68.2992 48.6957C68.5645 48.4211 68.5607 47.9844 68.2907 47.7144C68.0206 47.4444 67.5841 47.4406 67.3094 47.7059L64.7992 50.2154C64.5259 50.4887 64.0827 50.4887 63.8094 50.2154L62.989 49.395C62.158 48.6019 60.8505 48.6019 60.0196 49.395L57.0992 52.3154C56.8259 52.5887 56.3828 52.5887 56.1094 52.3154L55.2898 51.495C54.4586 50.7019 53.1508 50.7019 52.3197 51.495L51.0044 52.8103V47.5001C51.0044 47.1135 50.6909 46.8001 50.3044 46.8001C49.9179 46.8001 49.6044 47.1136 49.6044 47.5001V55.9001C49.6044 57.0599 50.5446 58.0001 51.7044 58.0001H67.8045C68.1911 58.0001 68.5045 57.6867 68.5045 57.3001C68.5044 56.9134 68.191 56.6001 67.8044 56.6001Z" fill="#0EF5FF"/>
</g>
<defs>
<filter id="filter0_d" x="0" y="0" width="102.009" height="102" filterUnits="userSpaceOnUse" color-interpolation-filters="sRGB">
<feFlood flood-opacity="0" result="BackgroundImageFix"/>
<feColorMatrix in="SourceAlpha" type="matrix" values="0 0 0 0 0 0 0 0 0 0 0 0 0 0 0 0 0 0 127 0"/>
<feOffset/>
<feGaussianBlur stdDeviation="15"/>
<feColorMatrix type="matrix" values="0 0 0 0 0.054902 0 0 0 0 0.960784 0 0 0 0 1 0 0 0 0.8 0"/>
<feBlend mode="normal" in2="BackgroundImageFix" result="effect1_dropShadow"/>
<feBlend mode="normal" in="SourceGraphic" in2="effect1_dropShadow" result="shape"/>
</filter>
</defs>
</svg>

<svg width="103" height="102" viewBox="0 0 103 102" fill="none" xmlns="http://www.w3.org/2000/svg"><g filter="url(#filter0_d)"><path fill-rule="evenodd" clip-rule="evenodd" d="M72.004 33.882v28.636a3.71 3.71 0 01-3.5 3.882h-11.2v1.4h2.8a2.8 2.8 0 012.8 2.8v.7a.7.7 0 01-.7.7h-22.4a.7.7 0 01-.7-.7v-.7a2.8 2.8 0 012.8-2.8h2.8v-1.4h-11.2a3.71 3.71 0 01-3.5-3.882V33.882a3.71 3.71 0 013.5-3.882h35a3.71 3.71 0 013.5 3.882zM61.504 70.6a1.4 1.4 0 00-1.4-1.4h-18.2a1.4 1.4 0 00-1.4 1.4h21zm-15.4-4.2v1.4h9.8v-1.4h-9.8zm-12.6-1.4h35a2.319 2.319 0 002.1-2.482V60.8h-39.2v1.718a2.318 2.318 0 002.1 2.482zm37.1-5.6V33.882a2.318 2.318 0 00-2.1-2.482h-35a2.318 2.318 0 00-2.1 2.482V59.4h39.2zm-2.8-19.196V42.6a.7.7 0 010 1.4h-16.1a2.1 2.1 0 01-2.1-2.1v-8.4a.7.7 0 011.4 0v8.4a.7.7 0 00.7.7h.7v-7.7a1.4 1.4 0 011.4-1.4h1.4a1.4 1.4 0 011.4 1.4v7.7h1.4v-4.389A1.213 1.213 0 0159.215 37h1.778c.669 0 1.21.542 1.211 1.211V42.6h1.4v-2.396c0-.61.495-1.104 1.104-1.104h1.993c.609 0 1.103.494 1.103 1.104zm-14 2.396h1.4v-7.7h-1.4v7.7zm5.6 0h1.4v-4.2h-1.4v4.2zm5.6 0h1.4v-2.1h-1.4v2.1zm-25.882-9.541a1.03 1.03 0 011.352-.01l5.397 4.83a.7.7 0 11-.934 1.043l-5.133-4.595-5.133 4.595a.7.7 0 01-.934-1.043l1.167-1.045V35.25a.7.7 0 111.4 0v.33l2.818-2.521zm4.182 7.441a.7.7 0 111.4 0v5.342a.97.97 0 01-.98.958h-7.84a.968.968 0 01-.98-.956V40.5a.7.7 0 111.4 0v4.9h7v-4.9zm-3.5 7.7a4.9 4.9 0 100 9.8 4.9 4.9 0 000-9.8zm-3.5 4.9a3.506 3.506 0 012.8-3.43v3.033l-2.59 1.553a3.454 3.454 0 01-.21-1.156zm.932 2.357l2.46-1.476 2.035 2.035a3.467 3.467 0 01-4.495-.56zm5.485-.43l-2.217-2.217v-3.14a3.494 3.494 0 012.217 5.356zM67.804 56.6h-16.1a.7.7 0 01-.7-.7v-1.11l2.306-2.305a.715.715 0 01.99 0l.82.82a2.1 2.1 0 002.969 0l2.92-2.92a.715.715 0 01.99 0l.82.82a2.104 2.104 0 002.97 0l2.51-2.51a.7.7 0 00-.99-.99l-2.51 2.51a.7.7 0 01-.99 0l-.82-.82a2.15 2.15 0 00-2.97 0l-2.92 2.92a.7.7 0 01-.99 0l-.82-.82a2.151 2.151 0 00-2.97 0l-1.315 1.315V47.5a.7.7 0 00-1.4 0v8.4c0 1.16.94 2.1 2.1 2.1h16.1a.7.7 0 100-1.4z" fill="#0EF5FF"/></g><defs><filter id="filter0_d" x="0" y="0" width="102.009" height="102" filterUnits="userSpaceOnUse" color-interpolation-filters="sRGB"><feFlood flood-opacity="0" result="BackgroundImageFix"/><feColorMatrix in="SourceAlpha" values="0 0 0 0 0 0 0 0 0 0 0 0 0 0 0 0 0 0 127 0"/><feOffset/><feGaussianBlur stdDeviation="15"/><feColorMatrix values="0 0 0 0 0.054902 0 0 0 0 0.960784 0 0 0 0 1 0 0 0 0.8 0"/><feBlend in2="BackgroundImageFix" result="effect1_dropShadow"/><feBlend in="SourceGraphic" in2="effect1_dropShadow" result="shape"/></filter></defs></svg>
